antibot/app/images/dist/oport-icon3.svg

<svg width="28" height="28" viewBox="0 0 28 28" fill="none" xmlns="http://www.w3.org/2000/svg">
<path d="M3.99996 27.3334C5.83329 27.3334 7.33329 25.8334 7.33329 24V12.3334C7.33329 10.5 5.83329 9.00002 3.99996 9.00002C2.16663 9.00002 0.666626 10.5 0.666626 12.3334V24C0.666626 25.8334 2.16663 27.3334 3.99996 27.3334ZM20.6666 19V24C20.6666 25.8334 22.1666 27.3334 24 27.3334C25.8333 27.3334 27.3333 25.8334 27.3333 24V19C27.3333 17.1667 25.8333 15.6667 24 15.6667C22.1666 15.6667 20.6666 17.1667 20.6666 19ZM14 27.3334C15.8333 27.3334 17.3333 25.8334 17.3333 24V4.00002C17.3333 2.16669 15.8333 0.666687 14 0.666687C12.1666 0.666687 10.6666 2.16669 10.6666 4.00002V24C10.6666 25.8334 12.1666 27.3334 14 27.3334Z" fill="#0085FF"/>
</svg>

<svg width="28" height="28" fill="none" xmlns="http://www.w3.org/2000/svg"><path d="M4 27.333c1.833 0 3.333-1.5 3.333-3.333V12.333C7.333 10.5 5.833 9 4 9a3.343 3.343 0 0 0-3.333 3.333V24c0 1.833 1.5 3.333 3.333 3.333ZM20.667 19v5c0 1.833 1.5 3.333 3.333 3.333 1.833 0 3.333-1.5 3.333-3.333v-5c0-1.833-1.5-3.333-3.333-3.333A3.343 3.343 0 0 0 20.667 19ZM14 27.333c1.833 0 3.333-1.5 3.333-3.333V4c0-1.833-1.5-3.333-3.333-3.333A3.343 3.343 0 0 0 10.667 4v20c0 1.833 1.5 3.333 3.333 3.333Z" fill="#0085FF"/></svg>
